!!!COM:	la Rue, Pierre de
!!!CDT:	~1452///-1518/11/20
!!!OTL:	Lauda anima mea dominum
!!!AGN:	Motet
!!!SCT:	Rue2006
!!!SCA:	Rue2006
!!!voices:	4
**kern	**kern	**kern	**kern
*staff4	*staff3	*staff2	*staff1
*Ivox	*Ivox	*Ivox	*Ivox
*I"Bassus	*I"Tenor	*I"Contra	*I"Discantus
*I'B	*I'T	*I'C	*I'D
*>[A,B]	*>[A,B]	*>[A,B]	*>[A,B]
*>A	*>A	*>A	*>A
*clefF4	*clefGv2	*clefGv2	*clefG2
*k[b-]	*k[b-]	*k[b-]	*k[b-]
*M2/1	*M2/1	*M2/1	*M2/1
*met(C|)	*met(C|)	*met(C|)	*met(C|)
!!section: Lauda, anima mea, dominum
!!!OMD: Lauda, anima mea, dominum
=1-	=1-	=1-	=1-
0r	0A	0r	0r
=2	=2	=2	=2
1r	1c	1r	1r
2r	2A/	2r	2r
[2D\	[2A/	[2d\	[2f/
=3	=3	=3	=3
2D\]	2A/]	2d\]	2f/]
2D\	2A/	2d\	2f/
1D	1A	1d	1f
=4	=4	=4	=4
2.D\	1A	1d	1f
4E\	.	.	.
1F	1A	1c	1f
=5	=5	=5	=5
1.D	1.A	1.d	1.f
2AA/	2A/	[2c\	2e/
=6	=6	=6	=6
1AA	1A	4c\]	1e
.	.	4B-\	.
.	.	1A	.
1BB-	1r	.	2d/
.	.	2G/	2dd\
=7	=7	=7	=7
2AA/	2r	2A/	4cc\
.	.	.	4b-\
2.A\	2A/	2.c\	4a/
.	.	.	4g/
.	1A	.	4f/
4G\	.	4B-\	4e/
4F\	.	4A/	[2a/
4E\	.	4G/	.
=8	=8	=8	=8
2.D\	2A/	2F/	4a/]
.	.	.	4g/
.	1A	2.f\	4f/
4E\	.	.	4e/
2F\	.	.	2.d/
.	.	4g\	.
[2D\	2A/	[2a\	.
.	.	.	4e/
=9	=9	=9	=9
4D\]	1A	4a\]	2.f/
4E\	.	4g\	.
2.F\	.	4f\	.
.	.	4e\	4g/
.	2r	1d	1a
4E\	.	.	.
4D\	2A/	.	.
4C/	.	.	.
=10	=10	=10	=10
4BB-/	1B-	2r	1dd
4C/	.	.	.
4D\	.	2d\	.
4E\	.	.	.
1F	1A	2c\	2r
.	.	[2f\	2a/
=11	=11	=11	=11
0r	1G	4f\]	1b-
.	.	2e\	.
.	.	4d\	.
.	1F	2.f\	1a
.	.	4d\	.
=12	=12	=12	=12
1E	0r	4e\	1g
.	.	4d\	.
.	.	4c\	.
.	.	4B-\	.
1F	.	1A	4f/
.	.	.	4g/
.	.	.	4a/
.	.	.	4b-\
=13	=13	=13	=13
1E	0r	2G/	4cc\
.	.	.	4dd\
.	.	2.c\	2ee\
1D	.	.	1ff
.	.	4A/	.
.	.	2B-\	.
=14	=14	=14	=14
2.C/	1G	2G/	1ee
.	.	1c	.
4BB-/	.	.	.
1GG	1G	.	2dd\
.	.	2B-\	2dd\
=15	=15	=15	=15
1C	1G	1c	2.cc\
.	.	.	4a/
1GG	1G	[1d	2b-\
.	.	.	[2g/
=16	=16	=16	=16
2D\	1A	2d\]	2g/]
2D\	.	2d\	2f#i/
2GG/	1G	2B-\	1g
2C/	.	[2c\	.
=17	=17	=17	=17
1C	1r	4c\]	2r
.	.	4B-\	.
.	.	2G/	2g/
1GG	2r	[1B-	1g
.	2G/	.	.
=18	=18	=18	=18
1BB-	1G	2B-\]	2d/
.	.	4A/	2dd\
.	.	4G/	.
1BB-	1D	2F/	1dd
.	.	2G/	.
=19	=19	=19	=19
2AA/	1F	0A	1a
2.D\	.	.	.
.	1F	.	2r
4C/	.	.	.
2D\	.	.	[2d/
=20	=20	=20	=20
1AA	1E	2r	2d/]
.	.	2A/	2c/
1r	1D	2A/	2.d/
.	.	[2D/	.
.	.	.	4e/
=21	=21	=21	=21
2.D\	2r	4D/]	4f/
.	.	4E/	4g/
.	2.D/	4F/	1a
4E\	.	4G/	.
4F\	.	2A/	.
4G\	4E/	.	.
2A\	4F/	2D/	[2f/
.	4G/	.	.
=22	=22	=22	=22
1D	4A/	1F	4f/]
.	4B-\	.	4g/
.	4c\	.	4a/
.	4d\	.	4b-\
2r	2e\	2r	2.cc\
[2A\	[2f\	[2c\	.
.	.	.	4dd\
=23	=23	=23	=23
4A\]	4f\]	2c\]	2cc\
4G\	4e\	.	.
2F\	1d	2d\	2f/
1E	.	1G	1g
.	2c#i\	.	.
=24	=24	=24	=24
1D	[0d	1A	2.f/
.	.	.	4g/
2r	.	2r	2a/
[2GG/	.	[2d\	[2b-\
=25	=25	=25	=25
4GG/]	0d_	2d\]	2b-\]
4AA/	.	.	.
4BB-/	.	4c\	4a/
4C/	.	4B-\	4g/
2D\	.	2A/	2f/
[2BB-/	.	[2B-\	[2d/
=26	=26	=26	=26
4BB-/]	0d_	2B-\]	4d/]
4C/	.	.	4e/
4D\	.	4A/	4f/
4E\	.	4G/	4g/
2F\	.	2F/	2a/
2G\	.	2B-\	[2g/
=27	=27	=27	=27
1D	0d]	1A	2g/]
.	.	.	2f/
2GG/	.	4G/	1b-
.	.	4A/	.
[2G\	.	4B-\	.
.	.	4c\	.
=28	=28	=28	=28
2G\]	0r	1d	1a
2F\	.	.	.
2G\	.	1r	1g
2B-\	.	.	.
=29	=29	=29	=29
1A	0r	1e	0r
1G	.	1g	.
=30	=30	=30	=30
0r	1A	1e	0r
.	1c	1e	.
=31	=31	=31	=31
0r	1A	2r	1a
.	.	2e\	.
.	[1A	2.e\	1cc
.	.	4e\	.
=32	=32	=32	=32
0r	2A/]	1e	1a
.	2A/	.	.
.	2.A/	1f	1a
.	4A/	.	.
=33	=33	=33	=33
0r	1A	1e	2r
.	.	.	2a/
.	1B-	2.d\	2f/
.	.	.	2g/
.	.	4d\	.
=34	=34	=34	=34
0r	1A	1c	1a
.	2.G/	1d	1b-
.	4F/	.	.
=35	=35	=35	=35
0r	1F	1d	1a
.	1G	2d\	[1g
.	.	2d\	.
=36	=36	=36	=36
0r	1G	2.e\	2g/]
.	.	.	2g/
.	.	4e\	.
.	2G/	1d	2d/
.	2G/	.	[2g/
=37	=37	=37	=37
1r	2.A/	2r	2g/]
.	.	2A/	2f/
.	4G/	.	.
2r	1G	2B-\	1g
2C/	.	[2c\	.
=38	=38	=38	=38
1C	2r	4c\]	2g/
.	.	4d\	.
.	2G/	2.e\	2.g/
1C	1G	.	.
.	.	4d\	4f/
.	.	4c\	4e/
.	.	4B-\	4d/
=39	=39	=39	=39
1C	1G	2c\	1e
.	.	2G/	.
1GG	1G	2.B-\	1d
.	.	8A/L	.
.	.	8G/J	.
=40	=40	=40	=40
0BB-	1D	0F	2r
.	.	.	1d
.	[1F	.	.
.	.	.	2d/
=41	=41	=41	=41
1AA	1F]	1r	4c/
.	.	.	4d/
.	.	.	4e/
.	.	.	4f/
1GG	1E	1G	1g
=42	=42	=42	=42
0r	[0D	2A/	2.f/
.	.	2B-\	.
.	.	.	4g/
.	.	2A/	2a/
.	.	[2d\	[2f/
=43	=43	=43	=43
0r	0D]	4d\]	4f/]
.	.	4e\	4g/
.	.	2.f\	2.a/
.	.	4e\	4g/
.	.	4d\	4f/
.	.	4c\	4e/
=44	=44	=44	=44
0r	1d	2.B-\	2d/
.	.	.	1g
.	.	8A/L	.
.	.	8G/J	.
.	1r	1A	.
.	.	.	2f#i/
=45	=45	=45	=45
2r	1r	2G/	1g
2G\	.	2.d\	.
1G	2r	.	2r
.	.	4c\	.
.	[2d\	4B-\	2dd\
.	.	4A/	.
=46	=46	=46	=46
1G	4d\]	2B-\	1dd
.	4c\	.	.
.	4B-\	4G/	.
.	4A/	4A/	.
1G	1B-	4B-\	1dd
.	.	4c\	.
.	.	4d\	.
.	.	4e\	.
=47	=47	=47	=47
1D	2A/	1f	1dd
.	1d	.	.
[1F	.	2r	1a
.	[2c\	[2F/	.
=48	=48	=48	=48
1F]	2c\]	4F/]	0cc
.	.	4G/	.
.	4B-\	4A/	.
.	4A/	4B-\	.
1E	1G	1c	.
=49	=49	=49	=49
[0D	1F	2.d\	1b-
.	.	4e\	.
.	2f\	2.f\	2.a/
.	[2d\	.	.
.	.	4e\	8g/L
.	.	.	8a/J
=50	=50	=50	=50
0D_	4d\]	1d	2b-\
.	4e\	.	.
.	2.f\	.	2.a/
.	.	2r	.
.	4e\	.	4g/
.	4d\	[2d\	4f/
.	4c\	.	4e/
=51	=51	=51	=51
0D]	2.B-\	2d\]	2d/
.	.	4c\	1g
.	8A/L	4B-\	.
.	8G/J	.	.
.	1A	1d	.
.	.	.	2f/
=52	=52	=52	=52
0GG	1.G	0B-	2.b-\
.	.	.	4a/
.	.	.	2g/
.	2F/	.	[2dd\
=53	=53	=53	=53
1AA	1E	1A	2dd\]
.	.	.	2cc\
2r	1D	2.A/	2dd\
2D\	.	.	2b-\
.	.	4F/	.
=54	=54	=54	=54
2D\	1r	2F/	2a/
2D\	.	2.F/	2b-\
2.F\	2r	.	1a
.	.	4G/	.
.	2A/	[2A/	.
4D\	.	.	.
=55	=55	=55	=55
1D	2A/	4A/]	0r
.	.	4F/	.
.	2A/	2F/	.
1C	2.c\	1G	.
.	4A/	.	.
=56	=56	=56	=56
1D	1A	2r	0r
.	.	1d	.
1E	1G	.	.
.	.	2c\	.
=57	=57	=57	=57
2.D\	1A	1d	2r
.	.	.	2a/
4C/	.	.	.
1AA	2r	1e	2a/
.	2A/	.	2a/
=58	=58	=58	=58
2r	2A/	2f\	2.cc\
2A\	2A/	2e\	.
.	.	.	4b-\
2.E\	2.c\	1e	2.g/
4F\	4B-\	.	4a/
=59	=59	=59	=59
2G\	2G/	1d	2b-\
2F\	2A/	.	2a/
4BB-/	1B-	1d	4g/
4C/	.	.	4f/
4D\	.	.	4e/
4E\	.	.	4d/
=60	=60	=60	=60
2F\	2A/	2r	2c/
2BB-/	2B-\	2d\	1f
1C	1G	4c\	.
.	.	4B-\	.
.	.	4A/	2e/
.	.	4G/	.
=61	=61	=61	=61
1FF	1F	1A	2.f/
.	.	.	8e/L
.	.	.	8d/J
2r	1r	2r	1c
2C/	.	2c\	.
=62	=62	=62	=62
2.C/	0r	2.c\	0r
4C/	.	4B-\	.
1C	.	2A/	.
.	.	[2G/	.
=63	=63	=63	=63
2C/	0r	2G/]	0r
2C/	.	2A/	.
2C/	.	2G/	.
2C/	.	[2c\	.
=64	=64	=64	=64
1D	1r	2c\]	0r
.	.	2Bni\	.
1C	2r	1c	.
.	[2G/	.	.
=65	=65	=65	=65
2BB-/	2G/]	2d\	0r
1C	2G/	1e	.
.	2G/	.	.
4BB-/	2G/	4d\	.
4AA/	.	4c\	.
=66	=66	=66	=66
2BB-/	1G	2d\	1r
2C/	.	2e\	.
[1GG	1G	[1d	1g
=67	=67	=67	=67
1GG]	1D	1d]	1b-
1r	1F	1c	1a
=68	=68	=68	=68
1GG	1E	1r	1g
1BB-	1D	1d	1r
=69	=69	=69	=69
1AA	1r	1f	0r
1GG	1G	1e	.
=70	=70	=70	=70
1D	1B-	1d	0r
1F	1A	2r	.
.	.	[2d\	.
=71	=71	=71	=71
1E	1G	2d\]	1g
.	.	2c\	.
1D	1r	2d\	1b-
.	.	[2f\	.
=72	=72	=72	=72
0r	1d	4f\]	0a
.	.	4e\	.
.	.	4d\	.
.	.	4c\	.
.	1f	1d	.
=73	=73	=73	=73
1G	1e	0G	4g/
.	.	.	4a/
.	.	.	4b-\
.	.	.	4cc\
1B-	1d	.	1dd
=74	=74	=74	=74
1A	0r	4c\	1ff
.	.	4d\	.
.	.	4e\	.
.	.	4f\	.
1G	.	2.g\	1ee
.	.	4f\	.
=75	=75	=75	=75
0B-	2r	2.d\	1.dd
.	2.d\	.	.
.	.	4e\	.
.	.	2f\	.
.	4e\	.	.
.	[2f\	2d\	4cc\
.	.	.	4b-\
=76	=76	=76	=76
0A	2f\]	1.a	2cc\
.	4e\	.	1dd
.	4d\	.	.
.	1e	.	.
.	.	2a\	2cc#i\
=77	=77	=77	=77
1D	1d	1f	1dd
2E\	1r	2g\	1r
[2F\	.	[2a\	.
=78	=78	=78	=78
2F\]	0r	2a\]	1a
4E\	.	4g\	.
4D\	.	4f\	.
1C	.	1e	1cc
=79	=79	=79	=79
0D	1d	1r	1a
.	1f	1d	1a
=80	=80	=80	=80
0r	1d	1f	1a
.	1d	[1d	1a
=81	=81	=81	=81
0r	1d	2d\]	1a
.	.	2f\	.
.	2c\	2e\	1a
.	[2d\	[2f\	.
=82	=82	=82	=82
0r	2d\]	2f\]	1a
.	4c\	4e\	.
.	4B-\	4d\	.
.	2A/	2c\	1a
.	[2d\	2d\	.
=83	=83	=83	=83
0r	2d\]	1e	1r
.	2c\	.	.
.	2.d\	1d	2.a/
.	4c\	.	4b-\
=84	=84	=84	=84
2r	2A/	2e\	2cc\
1BB-	1d	1f	2.b-\
.	.	.	4a/
2C/	2c\	2e\	[2a/
=85	=85	=85	=85
2D\	1B-	2.f\	2a/]
2E\	.	.	2g/
.	.	8e\L	.
.	.	8d\J	.
2.F\	2.A/	2.c\	1a
4E\	4B-\	4d\	.
=86	=86	=86	=86
1C	4c\	4e\	1r
.	4d\	4f\	.
.	2e\	2g\	.
1r	2f\	1d	1a
.	[2d\	.	.
=87	=87	=87	=87
2r	2d\]	1f	1a
1D	4c\	.	.
.	4B-\	.	.
.	2.A/	2F/	1a
4C/	.	4E/	.
4BB-/	4B-\	4D/	.
=88	=88	=88	=88
1AA	2c\	2E/	2r
.	1A	2F/	2a/
1BB-	.	1D	1dd
.	2G/	.	.
=89	=89	=89	=89
1AA	1A	2E/	1cc
.	.	2e\	.
1r	[1B-	2.d\	2b-\
.	.	.	[2dd\
.	.	4c\	.
=90	=90	=90	=90
0r	2B-\]	4d\	2dd\]
.	.	4e\	.
.	2A/	1f	2cc\
.	1G	.	1b-
.	.	2e\	.
=91	=91	=91	=91
1.F	1.F	1f	1a
.	.	2r	1r
2E\	2G/	2c\	.
=92	=92	=92	=92
2.D\	2.A/	2.f\	1a
4C/	4B-\	4e\	.
1AA	2c\	1c	1a
.	[2f\	.	.
=93	=93	=93	=93
2r	4f\]	2r	1a
.	4e\	.	.
1AA	2c\	2e\	.
.	1d	2f\	1b-
2GG/	.	2g\	.
=94	=94	=94	=94
0AA	1c	1e	1a
.	2r	2f\	2.a/
.	[2c\	[2e\	.
.	.	.	4g/
=95	=95	=95	=95
2r	4c\]	4e\]	2a/
.	4A/	4c\	.
1GG	1B-	1d	1g
2AA/	2A/	2c\	[2f/
=96	=96	=96	=96
2BB-/	1G	2.d\	2f/]
2C/	.	.	2e/
.	.	8c\L	.
.	.	8B-\J	.
2.D\	2.F/	[1A	1f
4E\	4G/	.	.
=97	=97	=97	=97
2F\	2A/	2A/]	1r
2G\	2B-\	2G/	.
1C	1c	1G	1g
=98	=98	=98	=98
0r	2B-\	2d\	1g
.	1c	1e	.
.	.	.	1g
.	2B-\	2d\	.
=99	=99	=99	=99
1F	1A	2c\	1a
.	.	2f\	.
[1G	[1B-	1d	1g
=100	=100	=100	=100
2G\]	2B-\]	1d	1g
4F\	4A/	.	.
4E\	4G/	.	.
2D\	2.A/	1d	1r
2F\	.	.	.
.	4B-\	.	.
=101	=101	=101	=101
1E	1G	1c	1g
1D	2A/	2d\	1d
.	[2d\	[2f\	.
=102	=102	=102	=102
2r	2d\]	2f\]	1f
2D\	4c\	4e\	.
.	4B-\	4d\	.
2.F\	2A/	2c\	1f
.	[2d\	2A/	.
4G\	.	.	.
=103	=103	=103	=103
1A	2d\]	1A	1e
.	2c\	.	.
1D	2.d\	1A	2.d/
.	8c\L	.	4e/
.	8B-\J	.	.
=104	=104	=104	=104
2r	1A	1D	4f/
.	.	.	4g/
2D\	.	.	2a/
4GG/	1G	1G	1b-
4AA/	.	.	.
4BB-/	.	.	.
4C/	.	.	.
=105	=105	=105	=105
2.D\	1D	2.F/	2a/
.	.	.	2b-\
4C/	.	4G/	.
2AA/	1F	[1A	[1a
[2D\	.	.	.
=106	=106	=106	=106
4D\]	1F	2A/]	2a/]
4C/	.	.	.
2D\	.	2A/	1dd
1AA	1E	1A	.
.	.	.	2cc\
=107	=107	=107	=107
2BB-/	[0Dl	2F/	1.dd
2.GG/	.	1B-	.
4AA/	.	.	.
4BB-/	.	4A/	4cc\
4C/	.	4G/	4b-\
=108	=108	=108	=108
1D	0D_	1F	2.a/
.	.	.	4f/
1GG	.	1G	1b-
=109	=109	=109	=109
0Dl	0D]	0Fl	0al
!!LO:LB:i:g=z
=110||	=110||	=110||	=110||
*>B	*>B	*>B	*>B
*clefF4	*clefGv2	*clefGv2	*clefG2
*k[b-]	*k[b-]	*k[b-]	*k[b-]
*M2/1	*M2/1	*M2/1	*M2/1
*met(C|)	*met(C|)	*met(C|)	*met(C|)
!!section: Qui custodit
!!!OMD: Qui custodit
1D	0r	0r	0r
1F	.	.	.
=111	=111	=111	=111
1D	1r	0r	0r
1D	1A	.	.
=112	=112	=112	=112
2C/	1c	0r	0r
1F	.	.	.
.	1A	.	.
4E\	.	.	.
4D\	.	.	.
=113	=113	=113	=113
2C/	1A	0r	0r
2D\	.	.	.
2GG/	2G/	.	.
[2AA/	[2c\	.	.
=114	=114	=114	=114
2AA/]	2c\]	0r	0r
2BB-/	4B-\	.	.
.	4A/	.	.
2C/	2G/	.	.
2AA/	2A/	.	.
=115	=115	=115	=115
0BB-	2D/	0r	0r
.	1F	.	.
.	2G/	.	.
=116	=116	=116	=116
2AA/	2.A/	0r	0r
1A	.	.	.
.	4B-\	.	.
.	2c\	.	.
[2B-\	[2d\	.	.
=117	=117	=117	=117
4B-\]	2d\]	0r	0r
4A\	.	.	.
1A	2c\	.	.
.	1B-	.	.
2G\	.	.	.
=118	=118	=118	=118
2A\	1A	0r	0r
2D\	.	.	.
2D\	2r	.	.
2D\	2A/	.	.
=119	=119	=119	=119
2.F\	2A/	0r	0r
.	2A/	.	.
4E\	.	.	.
2.C/	2.c\	.	.
4D\	4B-\	.	.
=120	=120	=120	=120
2.E\	2.G/	0r	0r
4E\	4A/	.	.
1D	2.B-\	.	.
.	4B-\	.	.
=121	=121	=121	=121
2D\	1A	0r	0r
1C	.	.	.
.	2A/	.	.
[2BB-/	[2G/	.	.
=122	=122	=122	=122
4BB-/]	4G/]	0r	0r
4AA/	4F/	.	.
2AA/	1F	.	.
1GG	.	.	.
.	2E/	.	.
=123	=123	=123	=123
1FF	1F	1r	1r
2r	2r	2r	2r
2C/	2G/	2c\	2e/
=124	=124	=124	=124
1C	1G	1c	1e
1GG	[1G	1B-	2d/
.	.	.	2g/
=125	=125	=125	=125
2r	2G/]	2c\	1g
2GG/	2G/	1d	.
4GG/	1G	.	1d
4AA/	.	.	.
4BB-/	.	4c\	.
4C/	.	4B-\	.
=126	=126	=126	=126
1D	1D	4A/	2r
.	.	4G/	.
.	.	4F/	1f
.	.	4E/	.
2D\	1F	2D/	.
2D\	.	[2A/	4e/
.	.	.	4d/
=127	=127	=127	=127
2AA/	2E/	2A/]	2c/
2BB-/	2D/	2G/	1d
1AA	1E	[1A	.
.	.	.	2c#i/
=128	=128	=128	=128
1D	4D/	2A/]	2.d/
.	4E/	.	.
.	4F/	2B-\	.
.	4G/	.	4e/
1r	2A/	2c\	2f/
.	2B-\	2d\	2g/
=129	=129	=129	=129
1AA	2.c\	1.e	1a
.	4B-\	.	.
1C	2G/	.	2r
.	[2A/	2E/	[2cc\
=130	=130	=130	=130
1AA	2A/]	1E	4cc\]
.	.	.	4a/
.	4G/	.	1dd
.	4F/	.	.
1AA	1E	2r	.
.	.	[2A/	2cc#i\
=131	=131	=131	=131
1BB-	1D	4A/]	1dd
.	.	4F/	.
.	.	2G/	.
1AA	[1E	2.A/	[1cc
.	.	4B-\	.
=132	=132	=132	=132
1AA	2E/]	2.c\	1cc]
.	2F/	.	.
.	.	4B-\	.
2GG/	2E/	2G/	2r
2FF/	2F/	[2A/	[2cc\
=133	=133	=133	=133
2AA/	2C/	2A/]	2cc\]
2BB-/	1F	2F/	1dd
1GG	.	1G	.
.	2E/	.	4cc\
.	.	.	4b-\
=134	=134	=134	=134
1FF	1F	2.A/	1a
.	.	4B-\	.
2.C/	2.G/	2.c\	2.cc\
4C/	4G/	4c\	4cc\
=135	=135	=135	=135
2C/	2G/	2c\	2cc\
2C/	2G/	2c\	2cc\
4FF/	1A	1c	2.cc\
4GG/	.	.	.
4AA/	.	.	.
4BB-/	.	.	4cc\
=136	=136	=136	=136
2C/	2G/	2c\	1g
1BB-	2D/	2.d\	.
.	1F	.	2r
.	.	4c\	.
2AA/	.	2A/	2a/
=137	=137	=137	=137
2GG/	2G/	2B-\	2d/
1.D	1A	1.A	1f
.	4G/	.	4e/
.	4F/	.	4d/
=138	=138	=138	=138
2GG/	4G/	2B-\	4e/
.	4F/	.	4d/
2BB-/	4E/	2G/	1d
.	4D/	.	.
1AA	1E	1A	.
.	.	.	2c#i/
=139	=139	=139	=139
2.D\	4D/	4F/	1d
.	4E/	4G/	.
.	4F/	4A/	.
4C/	4G/	4B-\	.
1AA	4A/	4c\	1r
.	4B-\	4d\	.
.	2c\	2e\	.
=140	=140	=140	=140
0r	2.d\	1f	1a
.	4c\	.	.
.	1A	1e	1cc
=141	=141	=141	=141
0r	0r	1d	1a
.	.	1f	1a
=142	=142	=142	=142
0r	0r	1d	2r
.	.	.	1b-
.	.	2.d\	.
.	.	.	2a/
.	.	4c\	.
=143	=143	=143	=143
0r	0r	2B-\	2g/
.	.	2c\	2a/
.	.	2d\	2b-\
.	.	[2c\	[2a/
=144	=144	=144	=144
0r	0r	4c\]	4a/]
.	.	4B-\	4g/
.	.	2A/	1f
.	.	1G	.
.	.	.	2e/
=145	=145	=145	=145
0r	0r	2F/	2f/
.	.	2.B-\	2.g/
.	.	4B-\	4g/
.	.	2c\	2g/
=146	=146	=146	=146
0r	0r	2.B-\	2.g/
.	.	4c\	4g/
.	.	2B-\	2d/
.	.	[2A/	2f/
=147	=147	=147	=147
0r	0r	2A/]	2e/
.	.	1d	2d/
.	.	.	1e
.	.	2c#i\	.
=148	=148	=148	=148
2r	1r	0d	0d
2.D\	.	.	.
.	2r	.	.
4E\	.	.	.
4F\	[2A/	.	.
4D\	.	.	.
=149	=149	=149	=149
2F\	4A/]	0r	0r
.	4B-\	.	.
2E\	4c\	.	.
.	4A/	.	.
2C/	2c\	.	.
2D\	2B-\	.	.
=150	=150	=150	=150
2E\	2G/	0r	0r
2F\	2A/	.	.
2G\	2B-\	.	.
2E\	2c\	.	.
=151	=151	=151	=151
1D	2d\	0r	0r
.	2B-\	.	.
2r	1A	.	.
2F\	.	.	.
=152	=152	=152	=152
2D\	2r	0r	0r
2E\	2c\	.	.
2F\	2A/	.	.
2D\	2B-\	.	.
=153	=153	=153	=153
2.C/	2c\	0r	0r
.	2A/	.	.
4D\	.	.	.
2.E\	2.G/	.	.
4E\	4A/	.	.
=154	=154	=154	=154
1D	2.B-\	0r	0r
.	4B-\	.	.
[1F	2A/	.	.
.	[2d\	.	.
=155	=155	=155	=155
2F\]	2d\]	0r	0r
2E\	2c\	.	.
2D\	2B-\	.	.
2C/	[2A/	.	.
=156	=156	=156	=156
1BB-	2A/]	1r	1r
.	2G/	.	.
2AA/	2A/	2r	2r
2D\	2A/	2d\	2a/
=157	=157	=157	=157
2F\	2A/	2c\	2f/
2F\	2A/	2c\	2f/
2F\	2A/	2c\	2f/
2F\	2A/	2c\	2f/
=158	=158	=158	=158
1BB-	1B-	1d	1f
1C	1G	1c	1e
=159	=159	=159	=159
1D	1F	2.A/	1f
.	.	4B-\	.
2C/	2G/	[1c	2e/
[2FF/	[2A/	.	[2c/
=160	=160	=160	=160
2FF/]	2A/]	2c\]	4c/]
.	.	.	4A/
2GG/	4G/	2B-\	1d
.	4F/	.	.
1AA	1E	1A	.
.	.	.	2c#i/
=161	=161	=161	=161
*M3/1	*M3/1	*M3/1	*M3/1
*met(3)	*met(3)	*met(3)	*met(3)
0D	0D	0F	2d/
.	.	.	2e/
.	.	.	2f/
.	.	.	2g/
1F	1r	1F	[1a
=162	=162	=162	=162
0D	0A	0F	2a/]
.	.	.	2g/
.	.	.	1f
1C	1c	1G	1e
=163	=163	=163	=163
1.D	0A	1.F	1.f
2C/	.	2G/	2e/
1AA	1A	2A/	1c
.	.	2F/	.
=164	=164	=164	=164
1.D	0A	1.f	1.f
2E\	.	2e\	2g/
2F\	1A	2c\	2a/
2D\	.	2d\	2f/
=165	=165	=165	=165
1.F	0A	0c	1a
.	.	.	2g/
2G\	.	.	2f/
2A\	1A	1c	1e
2F\	.	.	.
=166	=166	=166	=166
1.A	0A	1.A	1.c
2G\	.	2B-\	2d/
2F\	1A	1c	1e
2E\	.	.	.
=167	=167	=167	=167
0D	0A	0d	1.f
.	.	.	2g/
1C	1r	1e	2a/
.	.	.	2f/
=168	=168	=168	=168
2BB-/	0B-	0d	1b-
2C/	.	.	.
2D\	.	.	2a/
2E\	.	.	2g/
1F	1A	1c	1f
=169	=169	=169	=169
0C	1.G	0c	0e
.	2A/	.	.
1BB-	1B-	1d	1d
=170	=170	=170	=170
1.C	1.A	0c	1.e
2BB-/	2G/	.	2f/
1GG	1G	1B-	1g
=171	=171	=171	=171
1AA	0F	1c	1a
0GG	.	1d	1.b-
.	1E	1G	.
.	.	.	4a/
.	.	.	4g/
=172	=172	=172	=172
1FF	1F	1.c	1a
1C	1r	.	1cc
.	.	2B-\	.
1BB-	1G	1G	1dd
=173	=173	=173	=173
1.C	0G	0c	1.g
2BB-/	.	.	2a/
1GG	1G	1d	1b-
=174	=174	=174	=174
2C/	0G	0c	1.cc
2D\	.	.	.
2E\	.	.	.
2F\	.	.	2b-\
1G	1G	1B-	[1g
=175	=175	=175	=175
0C	1G	1c	2g/]
.	.	.	2f/
.	1G	1G	1e
1BB-	1G	1B-	1d
=176	=176	=176	=176
0AA	0A	0c	0c
1BB-	1G	1B-	1d
=177	=177	=177	=177
1C	1.G	1G	1.e
1GG	.	1B-	.
.	2F/	.	2f/
1BB-	1D	1G	1g
=178	=178	=178	=178
1.FF	0F	0A	1.f
2GG/	.	.	2e/
1AA	1E	1A	1c
=179	=179	=179	=179
1BB-	1D	1G	0d
0AA	0E	0A	.
.	.	.	1c#i
=180	=180	=180	=180
0.Dl	0.Dl	0.Al	0.dl
==	==	==	==
*-	*-	*-	*-
!!!RDF**kern: l=long note in original notation
!!!RDF**kern: i=editorial accidental
!!!ENC:	Chris Gage 01-02-2013
!!!END:	2013/07/20/
!!!EED:	Jesse Rodin
!!!EEV:	2013/08/05/
!!!ONB:	Translated from MusicXML and edited on 2013/08/05/ by Craig Sapp
!!muse2ps: C^@{COM}^i2I150v85,85,85,150Q16
